svgs/netzclub.svg

<svg width="192" height="192" viewBox="0 0 192 192" fill="none" xmlns="http://www.w3.org/2000/svg"><path d="M22 122v48h30v-48H22ZM81 72v98h30V72H81ZM140 22v148h30V22h-30Z" stroke="#000" stroke-width="12" stroke-linejoin="round"/></svg>

<svg width="192" height="192" viewBox="0 0 192 192" fill="none" xmlns="http://www.w3.org/2000/svg">
<path d="M22 122V170H52V122H22Z" stroke="black" stroke-width="12" stroke-linejoin="round"/>
<path d="M81 72V170H111V72H81Z" stroke="black" stroke-width="12" stroke-linejoin="round"/>
<path d="M140 22V170H170V22H140Z" stroke="black" stroke-width="12" stroke-linejoin="round"/>
</svg>
